src/components/Icon/assets/chat-question.svg

<svg width="24" height="24" viewBox="0 0 24 24" fill="none" xmlns="http://www.w3.org/2000/svg">
<path fill-rule="evenodd" clip-rule="evenodd" d="M20.7669 17.1296L21.5922 19.6047C21.8294 20.343 21.6983 20.7462 21.3101 21.2294C21.112 21.4455 20.8399 21.5956 20.6048 21.6566C20.3807 21.7166 20.0856 21.7416 19.7374 21.6326L17.6015 20.9212L17.1873 20.7832C17.0928 20.7517 17.0826 20.7506 17.0513 20.7471C17.0428 20.7462 17.0328 20.7451 17.0192 20.7432C16.9282 20.7382 16.8121 20.7602 16.6971 20.8212C15.5736 21.4235 14.296 21.8207 13.0084 21.9487C10.4313 22.2218 7.74706 21.4285 5.73916 19.7927C3.72126 18.182 2.32464 15.7499 2.07653 13.1568C1.74238 10.5916 2.52173 7.90243 4.10543 5.85652C5.70815 3.83162 8.09622 2.38797 10.6864 2.09284C13.2435 1.73568 15.9597 2.41498 18.0196 4.00169C20.0996 5.54438 21.5302 7.94946 21.8934 10.5216C22.0795 11.7972 22.0244 13.1198 21.7133 14.3793C21.5562 15.0096 21.3381 15.6239 21.064 16.2111C21.0223 16.3061 20.9748 16.3987 20.9273 16.4911L20.9273 16.4913C20.9008 16.5429 20.8743 16.5944 20.8489 16.6463C20.796 16.7456 20.7879 16.7718 20.7702 16.8285L20.7659 16.8424C20.7359 16.9555 20.7409 17.0485 20.7669 17.1296ZM18.869 17.7618C18.709 17.2886 18.71 16.7744 18.833 16.3242C18.888 16.1091 18.9971 15.862 19.0791 15.7119C19.0996 15.67 19.1209 15.6286 19.1422 15.5874L19.1423 15.5873C19.1804 15.5135 19.2185 15.4398 19.2512 15.3628C19.4713 14.8926 19.6454 14.4023 19.7704 13.9001C20.0185 12.8947 20.0636 11.8412 19.9135 10.8087C19.6214 8.75582 18.4869 6.84096 16.8141 5.59941C15.1664 4.32884 13.0104 3.7916 10.9475 4.07673C8.87657 4.30583 6.97272 5.46935 5.68414 7.08607C4.42258 8.7298 3.79229 10.8578 4.06442 12.9327C4.2575 14.9986 5.37 16.9335 6.99172 18.233C8.60845 19.5466 10.7334 20.1739 12.8053 19.9588C13.8418 19.8518 14.8342 19.5476 15.7696 19.0484C16.1698 18.8383 16.641 18.7183 17.1343 18.7463C17.3614 18.7533 17.6645 18.8273 17.8196 18.8843L18.2347 19.0234L19.4203 19.4186L18.869 17.7618ZM13.1849 16.9288C13.1849 17.6161 12.6286 18.1723 11.9413 18.1723C11.255 18.1723 10.6978 17.6161 10.6978 16.9288C10.6978 16.2415 11.255 15.6852 11.9413 15.6852C12.6286 15.6852 13.1849 16.2415 13.1849 16.9288ZM10.9299 14.541H12.8307V13.8327C12.8307 13.1144 13.379 12.6902 13.6151 12.5411C14.4475 12.0179 15.8401 11.1395 15.8401 9.48575C15.8401 7.54488 14.1523 6.0242 11.9984 6.0242C9.91543 6.0242 8.15665 7.60991 8.15665 9.48575H10.0575C10.0575 8.65438 10.9639 7.92505 11.9984 7.92505C12.9388 7.92505 13.9392 8.47229 13.9392 9.48575C13.9392 9.99397 13.469 10.3871 12.6016 10.9334C11.5552 11.5937 10.9299 12.6772 10.9299 13.8327V14.541Z" fill="#65676A"/>
</svg>

<svg xmlns="http://www.w3.org/2000/svg" width="24" height="24" viewBox="0 0 24 24">
    <path fill="#65676A" fill-rule="evenodd" d="M18.02 4.002c2.08 1.542 3.51 3.947 3.873 6.52.186 1.275.131 2.598-.18 3.857-.157.63-.375 1.245-.649 1.832-.065.148-.144.29-.215.435-.057.107-.062.13-.083.196-.023.085-.025.159-.014.224l.015.064.825 2.475c.237.738.106 1.141-.282 1.624-.198.216-.47.367-.705.428-.224.06-.52.085-.868-.024l-2.136-.712-.414-.138c-.12-.04-.104-.03-.168-.04-.09-.005-.207.017-.322.078-1.123.602-2.401 1-3.689 1.128-2.577.273-5.26-.52-7.269-2.156-2.018-1.611-3.414-4.043-3.662-6.636-.335-2.565.445-5.255 2.028-7.3 1.603-2.025 3.991-3.469 6.581-3.764 2.558-.357 5.274.322 7.334 1.909zm-7.073.075c-2.07.229-3.974 1.392-5.263 3.01-1.261 1.643-1.892 3.77-1.62 5.846.194 2.066 1.306 4 2.928 5.3 1.616 1.314 3.741 1.94 5.813 1.726 1.037-.107 2.03-.411 2.965-.91.4-.21.871-.33 1.364-.303.227.007.53.081.686.138l.415.14 1.185.395-.551-1.657c-.16-.473-.159-.988-.036-1.438.055-.215.164-.462.246-.612.057-.117.121-.23.172-.35.22-.47.394-.96.52-1.462.248-1.005.293-2.059.143-3.091-.293-2.053-1.427-3.968-3.1-5.21-1.648-1.27-3.804-1.807-5.867-1.522zm.994 11.608c.688 0 1.244.556 1.244 1.244 0 .687-.556 1.243-1.244 1.243-.686 0-1.243-.556-1.243-1.243 0-.688.557-1.244 1.243-1.244zm.057-9.66c2.154 0 3.842 1.52 3.842 3.46 0 1.654-1.393 2.533-2.225 3.056-.236.15-.784.573-.784 1.292v.708H10.93v-.708c0-1.156.625-2.24 1.672-2.9.867-.546 1.337-.939 1.337-1.447 0-1.014-1-1.561-1.94-1.561-1.035 0-1.942.73-1.942 1.56h-1.9c0-1.875 1.758-3.46 3.841-3.46z"/>
</svg>
